**harm	**harte	**timestamp	**phrase	**leadinstrument	**kern
*M4/4	*M4/4	*	*	*	*
*A-:	*A-:	*	*	*	*A-:
1r;	N	0	.	r	1r;
=1	=1	=1	=1	=1	=1
*>D_intro	*>D_intro	*>D_intro	*>D_intro	*>D_intro	*>D_intro
1I	A-:maj	0.138	newline	guitar	1A- 1cc 1ee-
=2	=2	=2	=2	=2	=2
1IV	D-:maj	2.942	.	guitar	1D- 1f 1a-
=3	=3	=3	=3	=3	=3
1I	A-:maj	5.745	.	guitar	1A- 1cc 1ee-
=4	=4	=4	=4	=4	=4
1IV	D-:maj	8.548	.	guitar	1D- 1f 1a-
=5	=5	=5	=5	=5	=5
1I	A-:maj	11.351	.	guitar	1A- 1cc 1ee-
=6	=6	=6	=6	=6	=6
1IV	D-:maj	14.154	.	guitar	1D- 1f 1a-
=7	=7	=7	=7	=7	=7
*>A_chorus	*>A_chorus	*>A_chorus	*>A_chorus	*>A_chorus	*>A_chorus
1I	A-:maj	16.958	newline	voice	1A- 1cc 1ee-
=8	=8	=8	=8	=8	=8
2IV	D-:maj	19.717	.	voice	2D- 2f 2a-
2V	E-:maj	21.097	.	voice	2E- 2g 2b-
=9	=9	=9	=9	=9	=9
1I	A-:maj	22.477	.	voice	1A- 1cc 1ee-
=10	=10	=10	=10	=10	=10
2IV	D-:maj	25.236	.	voice	2D- 2f 2a-
2V	E-:maj	26.616	.	voice	2E- 2g 2b-
=11	=11	=11	=11	=11	=11
4IV	D-:maj	27.996	.	voice	4D- 4f 4a-
4I	A-:maj	28.686	.	voice	4A- 4cc 4ee-
2V	E-:maj	29.376	.	voice	2E- 2g 2b-
=12	=12	=12	=12	=12	=12
1I	A-:maj	30.756	.	voice	1A- 1cc 1ee-
=13	=13	=13	=13	=13	=13
*>B_verse	*>B_verse	*>B_verse	*>B_verse	*>B_verse	*>B_verse
2vi	F:min	33.515	newline	voice	2F 2a- 2cc
2VI	F:maj	34.885	.	voice	2F 2a 2cc
=14	=14	=14	=14	=14	=14
1II	B-:maj	36.255	.	voice	1B- 1dd 1ff
=15	=15	=15	=15	=15	=15
1I	A-:maj	38.994	.	voice	1A- 1cc 1ee-
=16	=16	=16	=16	=16	=16
*M2/4	*M2/4	*M2/4	*M2/4	*M2/4	*M2/4
2IV	D-:maj	41.734	.	voice	2D- 2f 2a-
=17	=17	=17	=17	=17	=17
*M4/4	*M4/4	*M4/4	*M4/4	*M4/4	*M4/4
1V	E-:maj	43.103	.	voice	1E- 1g 1b-
=18	=18	=18	=18	=18	=18
1-VII	G-:maj	45.843	newline	voice	1G- 1b- 1dd-
=19	=19	=19	=19	=19	=19
1IV	D-:maj	48.605	.	voice	1D- 1f 1a-
=20	=20	=20	=20	=20	=20
1ii	B-:min	51.368	.	voice	1B- 1dd- 1ff
=21	=21	=21	=21	=21	=21
1V	E-:maj	54.131	.	voice	1E- 1g 1b-
=22	=22	=22	=22	=22	=22
*>A_chorus	*>A_chorus	*>A_chorus	*>A_chorus	*>A_chorus	*>A_chorus
1I	A-:maj	56.893	newline	voice	1A- 1cc 1ee-
=23	=23	=23	=23	=23	=23
2IV	D-:maj	59.687	.	voice	2D- 2f 2a-
2V	E-:maj	61.084	.	voice	2E- 2g 2b-
=24	=24	=24	=24	=24	=24
1I	A-:maj	62.48	.	voice	1A- 1cc 1ee-
=25	=25	=25	=25	=25	=25
2IV	D-:maj	65.274	.	voice	2D- 2f 2a-
2V	E-:maj	66.671	.	voice	2E- 2g 2b-
=26	=26	=26	=26	=26	=26
4IV	D-:maj	68.068	.	voice	4D- 4f 4a-
4I	A-:maj	68.766	.	voice	4A- 4cc 4ee-
2V	E-:maj	69.464	.	voice	2E- 2g 2b-
=27	=27	=27	=27	=27	=27
1I	A-:maj	70.861	.	voice	1A- 1cc 1ee-
=28	=28	=28	=28	=28	=28
*>B_verse	*>B_verse	*>B_verse	*>B_verse	*>B_verse	*>B_verse
2vi	F:min	73.655	newline	voice	2F 2a- 2cc
2VI	F:maj	75.038	.	voice	2F 2a 2cc
=29	=29	=29	=29	=29	=29
1II	B-:maj	76.422	.	voice	1B- 1dd 1ff
=30	=30	=30	=30	=30	=30
1I	A-:maj	79.189	.	voice	1A- 1cc 1ee-
=31	=31	=31	=31	=31	=31
*M2/4	*M2/4	*M2/4	*M2/4	*M2/4	*M2/4
2IV	D-:maj	81.956	.	voice	2D- 2f 2a-
=32	=32	=32	=32	=32	=32
*M4/4	*M4/4	*M4/4	*M4/4	*M4/4	*M4/4
1V	E-:maj	83.339	.	voice	1E- 1g 1b-
=33	=33	=33	=33	=33	=33
1-VII	G-:maj	86.107	newline	voice	1G- 1b- 1dd-
=34	=34	=34	=34	=34	=34
1IV	D-:maj	88.899	.	voice	1D- 1f 1a-
=35	=35	=35	=35	=35	=35
1ii	B-:min	91.692	.	voice	1B- 1dd- 1ff
=36	=36	=36	=36	=36	=36
1V	E-:maj	94.485	.	voice	1E- 1g 1b-
=37	=37	=37	=37	=37	=37
*>C_prechorus	*>C_prechorus	*>C_prechorus	*>C_prechorus	*>C_prechorus	*>C_prechorus
1I	A-:maj	97.278	newline	voice	1A- 1cc 1ee-
=38	=38	=38	=38	=38	=38
2IV	D-:maj	100.058	.	voice	2D- 2f 2a-
2V	E-:maj	101.448	.	voice	2E- 2g 2b-
=39	=39	=39	=39	=39	=39
1I	A-:maj	102.838	.	voice	1A- 1cc 1ee-
=40	=40	=40	=40	=40	=40
2IV	D-:maj	105.617	.	voice	2D- 2f 2a-
2V	E-:maj	107.007	.	voice	2E- 2g 2b-
=41	=41	=41	=41	=41	=41
*>A_chorus	*>A_chorus	*>A_chorus	*>A_chorus	*>A_chorus	*>A_chorus
1I	A-:maj	108.397	newline	voice	1A- 1cc 1ee-
=42	=42	=42	=42	=42	=42
2IV	D-:maj	111.182	.	voice	2D- 2f 2a-
2V	E-:maj	112.574	.	voice	2E- 2g 2b-
=43	=43	=43	=43	=43	=43
1I	A-:maj	113.967	.	voice	1A- 1cc 1ee-
=44	=44	=44	=44	=44	=44
2IV	D-:maj	116.752	.	voice	2D- 2f 2a-
2V	E-:maj	118.144	.	voice	2E- 2g 2b-
=45	=45	=45	=45	=45	=45
4IV	D-:maj	119.537	.	voice	4D- 4f 4a-
4I	A-:maj	120.233	.	voice	4A- 4cc 4ee-
2V	E-:maj	120.929	.	voice	2E- 2g 2b-
=46	=46	=46	=46	=46	=46
1I	A-:maj	122.322	.	voice	1A- 1cc 1ee-
=47	=47	=47	=47	=47	=47
*>B_verse	*>B_verse	*>B_verse	*>B_verse	*>B_verse	*>B_verse
2vi	F:min	125.107	newline	voice	2F 2a- 2cc
2VI	F:maj	126.506	.	voice	2F 2a 2cc
=48	=48	=48	=48	=48	=48
1II	B-:maj	127.905	.	voice	1B- 1dd 1ff
=49	=49	=49	=49	=49	=49
1I	A-:maj	130.704	.	voice	1A- 1cc 1ee-
=50	=50	=50	=50	=50	=50
*M2/4	*M2/4	*M2/4	*M2/4	*M2/4	*M2/4
2IV	D-:maj	133.502	.	voice	2D- 2f 2a-
=51	=51	=51	=51	=51	=51
*M4/4	*M4/4	*M4/4	*M4/4	*M4/4	*M4/4
1V	E-:maj	134.902	.	voice	1E- 1g 1b-
=52	=52	=52	=52	=52	=52
1-VII	G-:maj	137.7	newline	voice	1G- 1b- 1dd-
=53	=53	=53	=53	=53	=53
1IV	D-:maj	140.493	.	voice	1D- 1f 1a-
=54	=54	=54	=54	=54	=54
1ii	B-:min	143.287	.	voice	1B- 1dd- 1ff
=55	=55	=55	=55	=55	=55
1V	E-:maj	146.08	.	voice	1E- 1g 1b-
=56	=56	=56	=56	=56	=56
*>A_chorus	*>A_chorus	*>A_chorus	*>A_chorus	*>A_chorus	*>A_chorus
1I	A-:maj	148.873	newline	voice	1A- 1cc 1ee-
=57	=57	=57	=57	=57	=57
2IV	D-:maj	151.662	.	voice	2D- 2f 2a-
2V	E-:maj	153.057	.	voice	2E- 2g 2b-
=58	=58	=58	=58	=58	=58
1I	A-:maj	154.452	.	voice	1A- 1cc 1ee-
=59	=59	=59	=59	=59	=59
2IV	D-:maj	157.241	.	voice	2D- 2f 2a-
2V	E-:maj	158.636	.	voice	2E- 2g 2b-
=60	=60	=60	=60	=60	=60
4IV	D-:maj	160.031	.	voice	4D- 4f 4a-
4I	A-:maj	160.728	.	voice	4A- 4cc 4ee-
2V	E-:maj	161.425	.	voice	2E- 2g 2b-
=61	=61	=61	=61	=61	=61
1I	A-:maj	162.82	.	voice	1A- 1cc 1ee-
=62	=62	=62	=62	=62	=62
*>C_prechorus	*>C_prechorus	*>C_prechorus	*>C_prechorus	*>C_prechorus	*>C_prechorus
1I	A-:maj	165.609	newline	voice	1A- 1cc 1ee-
=63	=63	=63	=63	=63	=63
2IV	D-:maj	168.384	.	voice	2D- 2f 2a-
2V	E-:maj	169.771	.	voice	2E- 2g 2b-
=64	=64	=64	=64	=64	=64
1I	A-:maj	171.158	.	voice	1A- 1cc 1ee-
=65	=65	=65	=65	=65	=65
2IV	D-:maj	173.933	.	voice	2D- 2f 2a-
2V	E-:maj	175.32	.	voice	2E- 2g 2b-
=66	=66	=66	=66	=66	=66
*>C_prechorus_fadeout	*>C_prechorus_fadeout	*>C_prechorus_fadeout	*>C_prechorus_fadeout	*>C_prechorus_fadeout	*>C_prechorus_fadeout
1I	A-:maj	176.707	newline	guitar voice	1A- 1cc 1ee-
=67	=67	=67	=67	=67	=67
2IV	D-:maj	179.483	.	guitar voice	2D- 2f 2a-
2V	E-:maj	180.871	.	guitar voice	2E- 2g 2b-
=68	=68	=68	=68	=68	=68
1I	A-:maj	182.259	.	guitar voice	1A- 1cc 1ee-
=69	=69	=69	=69	=69	=69
2IV	D-:maj	185.034	.	guitar voice	2D- 2f 2a-
2V	E-:maj	186.422	.	guitar voice	2E- 2g 2b-
1r;	N	187.81	.	r	1r;
1r;	N	190.516	.	r	1r;
*-	*-	*-	*-	*-	*-
!!!OTL: Indiana Wants Me
!!!COC: R. Dean Taylor
!!!BillboardChartDate: 1970/12/05, 1970/09/19
!!!BillboardPeak: 5, 5
!!!BillboardWeeksOnChart: 15, 15
!!!SampleTargetRank: 18, 34
!!!SampleActualRank: 18, 35
!!!SampleID#: 30, 537
!!!RDF**harmony: **recip + pitch class of root + harmonic quality
!!!RDF**harte: Chris Harte's syntax, used by MIREX
!!!RDF**phrase: newline = linebreak in original McGill transcription
!!!RDF**timestamp: McGill audio timestamp in seconds
!!!RDF**leadinstrument: original McGill primary instrumentation annotation
!!!RDT: 2017/01/12/
!!!ENC: Nathaniel Condit-Schultz
!!!EST: Awating manual error checking and editing.
